X:1
T:Do kam der bruder
T:Do kam der bruder
T:Anonymous
T:Source : Trium vocum cantiones---Nürnberg---J.Petreius---1541. Editor : André Vierendeels (07/09/16).
T:Notes : Original clefs : C1, C3, F4 Editorial accidentals above the staff Original note values have been halved
T:©
T:©
T:©
T:©
C:Anonymous
Z:©
%%score [ 1 2 3 ]
L:1/8
Q:1/4=120
M:2/2
K:C
V:1 treble nm="Soprano" snm="S"
V:2 treble-8 nm="Tenor" snm="T"
V:3 bass nm="Bass" snm="B"
V:1
 A3 G E2 F2 | E2 A4 GF | E2 D2 E4 | D4 D2 F2- | FG A2 G4 | A4 G3 F | E2 D2 E4 | DEFG AB A2- | %8
w: Do _ _ kam|der bru- * *|* der Stof-|fel mit sei-|* * * nem|ro- sti- *|* gen spiesz,|_ _ _ _ _ _ _|
 A2 GF E2 F2 | E2 A2 A2 GF | E2 D2 E4 | D4 D2 F2- | FG A2 G4 | A4 G3 F | E2 D2 E4 | z2 D2 F3 E | %16
w: * * * * er|furt ein wild _ _|_ ge- fech-|te, dar- an|_ _ _ het|ein ver- *|* * dries,|thut dich der|
 FG A2 A2 GF | E2 c3 BAG | F2 A4 GF | G4 z2 G2 | G2 G2 F2 A2 | c4 B2 A2- | A2 GF G2 G2 | %23
w: _ _ buck- el _ _|_ suck- * * *||en, so|reib dich her, so|reib dich her|_ _ _ _ an|
 A3 G F2 E2- | ED D4 C2 | D2 A2 c2 c2 | B2 A2 A2 G2 | A4 z2 A2 | G2 G2 F3 E/D/ | C2 c3 B A2 | %30
w: mich, _ _ her|_ _ an _|mich, du mainst du|wolst mich tru- *|cken, ste|hin- ter dich, _ _|_ ste _ _|
 G2 G2 F2 AG | AB c4 BA | G2 G2 F2 A2 | E2 G2 G2 F2 | G4 F2 ED | C4 z2 c2 | c2 BA B4 | ABcA B4 | %38
w: hin- der dich, kein _|_ _ woer _ _|_ nit sprich, ich|hau in dich ein|lu- cken _ _|_ und|gib _ _ _|dir _ _ _ _|
 c2 d4 c2 | d8 |] %40
w: _ ei- nen|stich.|
V:2
 A3 B c3 d | e2 f4 ed | c2 d2 d2 c2 | d4 A2 d2- | de f2 edcB | A2 c2 B4 | c2 d4 c2 | d3 e fg f2 | %8
w: Do- * kam _|der bru- * *|* der Stof- *|fel, mit sei-|nem _ _ _ _ _ _|_ _ ro-|* sti- gen|spiesz, _ _ _ _|
 f2 ed c2 d2 | c2 f4 ed | c2 d4 c2 | d4 A2 d2- | de f2 edcB | A2 c2 B2 B2 | c2 d4 c2 | d4 z2 d2 | %16
w: _ _ _ _ er|furt ein _ _|_ wild ge-|fech- te, dar-||ran het _ ein|ver- * *|dries, thut|
 d2 cB A2 B2 | c2 e2 edcB | A2 f3 edc | B2 e4 dc | B2 c2 d2 f2 | e4 d4 | c2 BA B2 B2 | A4 z2 c2- | %24
w: dich _ _ _ der|buck- * el _ _ _|_ iuck _ _ _|_ en _ _|_ _ so reib|dich her|der _ _ _ an|mich, her|
 c2 d2 e4 | d2 f2 e2 e2 | d3 c B2 c2 | A3 B cA d2- | d2 c2 d3 c/B/ | A4 z2 A2 | c2 B3 A f2- | %31
w: _ an _|mich, du mainst du|wolst _ _ mich|truck- * * * *||en, ste|hin- der dich, kein|
 f2 ed c2 d2- | d2 c2 d2 A2 | c3 B A2 d2- | d2 c2 d4 | z2 e2 f2 ed | e2 f4 e2 | d2 a2 g3 f | %38
w: _ _ _ wort nit|_ _ sprich, ich|hau in dich ein|_ luck- en,|und gib _ _|_ _ _|dir ei- * *|
 e2 d2 e4 | d8 |] %40
w: * * nen|stich.|
V:3
 z4 A,4 | A,4 A,4 |"^b" A,4 A,4 | D,8 | D,4 E,4 | F,4 G,4 | A,4 A,4 | D,8 | z4 A,4 | A,4 A,4 | %10
w: Do|kam der|bru- d'r|Stof-|fel, mit|seim ro-|sti- gen|spiesz,|er|furt ein|
 A,4 A,4 | D,8 | D,4 E,4 | F,4 G,4 | A,4 A,4 | D,8 | z4 D,4 | C,4 C,4 | D,4 D,4 | E,8 | E,4 D,4 | %21
w: wild ge-|fech-|te, dar-|an het|ein ver-|dries.|thut|dich der|buck- el|iuck-|en, so|
 C,4 D,4 | E,4 E,4 | A,,8 | z4 A,,4 | D,4 C,4 | D,4 E,4 | F,8 | E,4 D,4 | F,4 F,4 | E,4 D,4 | %31
w: reib dich|her an|mich,|du|mainst du|wolst mich|truck-|en, ste|hin- der|dich, kein|
 F,4 F,4 | E,4 D,4 |"^#" C,4 D,4 | E,4 D,4 | A,8 | A,4 G,4 | F,4 G,4 | A,4 A,4 | D,8 |] %40
w: wort nit|sprich, ich|hau in|dich ein|luck-|en, und|gib dir|ei- nem|stich.|

